assets/bosch/original.svg

<svg viewBox="0 0 24 24" xmlns="http://www.w3.org/2000/svg" fill="#EA0016"><path d="m12 0c-6.627 0-12 5.373-12 12s5.373 12 12 12 12-5.373 12-12c-.004-6.626-5.374-11.996-12-12zm0 22.88c-6.009 0-10.88-4.871-10.88-10.88s4.871-10.88 10.88-10.88 10.88 4.871 10.88 10.88c-.006 6.006-4.874 10.874-10.88 10.88zm4.954-18.374h-.821v4.108h-8.24v-4.108h-.847a8.978 8.978 0 0 0 0 14.988h.846v-4.108h8.24v4.108h.822a8.978 8.978 0 0 0 0-14.988zm-10.207 13.37a7.86 7.86 0 0 1 0-11.752zm9.386-3.635h-8.24v-4.507h8.24zm1.12 3.61v-11.727a7.882 7.882 0 0 1 0 11.727z"/></svg>

<svg xmlns="http://www.w3.org/2000/svg" fill="#ea0016" viewBox="0 0 24 24"><path d="M12 0C5.373 0 0 5.373 0 12s5.373 12 12 12 12-5.373 12-12C23.996 5.374 18.626.004 12 0m0 22.88C5.991 22.88 1.12 18.009 1.12 12S5.991 1.12 12 1.12 22.88 5.991 22.88 12c-.006 6.006-4.874 10.874-10.88 10.88m4.954-18.374h-.821v4.108h-8.24V4.506h-.847a8.978 8.978 0 0 0 0 14.988h.846v-4.108h8.24v4.108h.822a8.978 8.978 0 0 0 0-14.988M6.747 17.876a7.86 7.86 0 0 1 0-11.752zm9.386-3.635h-8.24V9.734h8.24zm1.12 3.61V6.124a7.88 7.88 0 0 1 0 11.727"/></svg>
